public/formular-icons/greece/upper-xi.svg

<svg style="vertical-align:0" xmlns="http://www.w3.org/2000/svg" width="1.509ex" height="1.532ex" viewBox="0 -677 667 677" xmlns:xlink="http://www.w3.org/1999/xlink"><defs><path id="a" d="m47 509 8 167q0 1 278 1t278-1l8-167q0-1-20-1t-20 2q0 19-4 47t-11 32q-14 5-231 5t-231-5q-7-3-11-31t-4-48q0-2-20-2t-20 1Zm92-249v185h40v-51h308v51h40V260h-40v51H179v-51h-40ZM50 0l-8 180h20q20 0 20-2 0-45 7-73 3-12 6-15t13-4q29-3 225-3 197 0 225 3 10 1 13 4t6 15q7 28 7 73 0 2 20 2h20L616 0H50Z"/></defs><g stroke="currentColor" fill="currentColor" stroke-width="0"><use data-c="39E" xlink:href="#a" transform="scale(1 -1)"/></g></svg>

<svg style="vertical-align: 0" xmlns="http://www.w3.org/2000/svg" width="1.509ex" height="1.532ex" role="img" focusable="false" viewBox="0 -677 667 677" xmlns:xlink="http://www.w3.org/1999/xlink"><defs><path id="MJX-113-TEX-N-39E" d="M47 509L55 676Q55 677 333 677T611 676L619 509Q619 508 599 508T579 510Q579 529 575 557T564 589Q550 594 333 594T102 589Q95 586 91 558T87 510Q87 508 67 508T47 509ZM139 260V445H179V394H487V445H527V260H487V311H179V260H139ZM50 0L42 180H62Q82 180 82 178Q82 133 89 105Q92 93 95 90T108 86Q137 83 333 83Q530 83 558 86Q568 87 571 90T577 105Q584 133 584 178Q584 180 604 180H624L616 0H50Z"></path></defs><g stroke="currentColor" fill="currentColor" stroke-width="0" transform="scale(1,-1)"><g data-mml-node="math"><g data-mml-node="mi"><use data-c="39E" xlink:href="#MJX-113-TEX-N-39E"></use></g></g></g></svg>
